_src/static/img/sprite/viber.svg

<svg width="20" height="22" viewBox="0 0 20 22" fill="none" xmlns="http://www.w3.org/2000/svg">
<!-- <rect x="1.56934" y="1.97412" width="17" height="16" rx="5" fill="#1B3ACD"/> -->
<path d="M5.56934 20.9741V17.4741H8.56934L5.56934 20.9741Z" fill="#1B3ACD"/>
<path d="M17.3509 2.58761C16.8469 2.11548 14.8244 0.609772 10.3072 0.590632C10.3072 0.590632 4.9862 0.258865 2.38949 2.69607C0.947584 4.17626 0.437174 6.33912 0.386133 9.02515C0.335092 11.7112 0.264911 16.7387 4.99896 18.1041H5.00534V20.184C5.00534 20.184 4.97344 21.0262 5.51575 21.1984C6.17291 21.409 6.55571 20.7646 7.18097 20.0755C7.52549 19.6991 7.99762 19.1377 8.35491 18.7166C11.596 18.9973 14.0843 18.3593 14.365 18.2636C15.0221 18.0467 18.7162 17.5618 19.3223 12.5342C19.9412 7.34718 19.0161 4.0678 17.3509 2.58761ZM17.9123 12.1578C17.4019 16.3559 14.4033 16.6239 13.8482 16.8025C13.6121 16.8791 11.4237 17.4342 8.67392 17.2555L5.6944 20.5604V16.7515L5.66888 16.7451C1.66216 15.6031 1.79614 11.3348 1.8408 9.09533C1.88546 6.85591 2.30017 5.01844 3.51877 3.78069C5.71354 1.74543 10.237 2.05168 10.237 2.05168C14.0587 2.07082 15.8835 3.24476 16.3109 3.64033C17.7209 4.87169 18.4355 7.82569 17.9123 12.1578ZM14.6266 13.7847V13.7911C14.4224 14.1548 14.1544 14.4993 13.8163 14.8183L13.8099 14.8247C13.3633 15.2075 12.9295 15.3223 12.5147 15.1884C10.9006 14.5376 9.26727 13.5997 7.75518 12.0302C6.23033 10.4415 5.20313 8.66149 4.67358 6.98351L4.62254 6.74107C4.52045 6.13496 4.89688 5.72663 5.94322 5.01844L5.96236 5.00568C6.32603 4.78237 6.6897 4.89084 6.91938 5.08862C7.13631 5.24174 7.74242 6.04564 7.74242 6.04564C7.86364 6.22428 8.69944 7.25786 8.50165 7.74913C8.43785 8.03623 7.94658 8.32972 7.685 8.57855L7.66586 8.59769C7.55101 8.78271 7.50635 8.91031 7.54463 9.18466L7.55739 9.22932C7.69776 9.89286 8.08056 10.5372 8.7122 11.1497C9.33745 11.7559 9.95632 12.1195 10.5305 12.2663C10.6135 12.2854 10.9197 12.3237 11.1175 12.0685L11.5067 11.5644C11.6917 11.3156 12.1511 11.1561 12.5977 11.4113C12.8465 11.5517 13.2931 11.8388 13.5675 12.0493C13.861 12.2726 14.4671 12.7894 14.4734 12.7894C14.7542 13.0319 14.818 13.3955 14.6266 13.7847ZM10.5752 7.4046C11.0473 7.43012 11.411 7.57687 11.6598 7.84483C11.9086 8.1128 12.049 8.4956 12.0745 8.99325C12.0745 9.06343 12.0235 9.12086 11.9597 9.12086H11.9533C11.8895 9.12086 11.8385 9.06982 11.8321 9.00602C11.8129 8.57217 11.6917 8.2404 11.4876 8.0171C11.277 7.79379 10.9644 7.67257 10.5624 7.65343C10.4986 7.64705 10.4476 7.58963 10.4476 7.52582C10.454 7.44926 10.505 7.39822 10.5752 7.4046ZM13.0252 9.40158C13.0443 8.57217 12.8019 7.86397 12.3042 7.3089C12.0554 7.02817 11.7555 6.81125 11.411 6.65813C11.0665 6.50501 10.6581 6.4093 10.2051 6.37102C10.1413 6.36464 10.0903 6.30722 10.0967 6.23704C10.1031 6.16686 10.1605 6.11582 10.2243 6.1222C11.1877 6.19238 11.9469 6.53691 12.4828 7.13664C13.0252 7.74275 13.2867 8.50199 13.2676 9.40158C13.2676 9.47176 13.2102 9.52281 13.1464 9.52281C13.0762 9.52281 13.0252 9.47176 13.0252 9.40158ZM9.68835 5.01205C9.68835 4.94187 9.74578 4.89084 9.80958 4.89084C11.1303 4.9036 12.2468 5.35658 13.1336 6.24342C13.5802 6.69003 13.9184 7.21958 14.1417 7.83207C14.365 8.43819 14.4798 9.13362 14.4862 9.89924C14.4862 9.96942 14.4352 10.0205 14.365 10.0205C14.3012 10.0205 14.2438 9.96304 14.2438 9.89924C14.2374 9.16552 14.1289 8.49561 13.912 7.9214C13.7015 7.34719 13.3761 6.84316 12.955 6.42207C12.5339 6.00098 12.0554 5.68197 11.5322 5.47143C11.009 5.26088 10.4221 5.14604 9.79682 5.14604C9.7394 5.13966 9.68197 5.08224 9.68835 5.01205Z" fill="white"/>
</svg>

<svg width="20" height="22" fill="none" xmlns="http://www.w3.org/2000/svg"><path d="M5.57 20.974v-3.5h3l-3 3.5z" fill="#1B3ACD"/><path d="M17.35 2.588C16.848 2.115 14.825.61 10.308.59c0 0-5.32-.332-7.918 2.105C.948 4.176.437 6.34.386 9.026.336 11.71.265 16.738 5 18.103h.006v2.08s-.032.842.51 1.014c.658.211 1.04-.433 1.666-1.122.344-.377.817-.938 1.174-1.36 3.241.281 5.73-.357 6.01-.452.657-.217 4.351-.702 4.957-5.73.62-5.187-.306-8.466-1.971-9.946zm.562 9.57c-.51 4.198-3.509 4.466-4.064 4.644-.236.077-2.424.632-5.174.454l-2.98 3.304v-3.808l-.025-.007c-4.007-1.142-3.873-5.41-3.828-7.65.044-2.24.46-4.077 1.678-5.314 2.195-2.036 6.718-1.73 6.718-1.73 3.822.02 5.646 1.194 6.074 1.59 1.41 1.23 2.125 4.185 1.601 8.517zm-3.285 1.627v.006a4.318 4.318 0 01-.81 1.027l-.007.007c-.447.383-.88.497-1.295.363-1.614-.65-3.248-1.588-4.76-3.158-1.525-1.588-2.552-3.369-3.081-5.046l-.051-.243c-.103-.606.274-1.014 1.32-1.723l.02-.012c.363-.224.727-.115.956.083.217.153.823.957.823.957.122.178.957 1.212.76 1.703-.064.287-.555.58-.817.83l-.02.019c-.114.185-.159.312-.12.587l.012.044c.14.664.524 1.308 1.155 1.92.625.607 1.244.97 1.819 1.117.082.02.389.058.586-.197l.39-.505c.185-.248.644-.408 1.09-.153.25.14.696.428.97.638.294.224.9.74.906.74.281.243.345.607.154.996zm-4.052-6.38c.472.025.836.172 1.085.44s.389.65.415 1.148c0 .07-.051.128-.115.128h-.007a.124.124 0 01-.12-.115c-.02-.434-.141-.766-.345-.989-.211-.223-.524-.344-.926-.364a.13.13 0 01-.114-.127c.006-.077.057-.128.127-.121zm2.45 1.997c.02-.83-.223-1.538-.72-2.093a2.582 2.582 0 00-.894-.65 3.76 3.76 0 00-1.206-.288.122.122 0 01-.108-.134c.006-.07.064-.121.127-.115.964.07 1.723.415 2.259 1.015.542.606.804 1.365.785 2.265a.12.12 0 01-.122.12.117.117 0 01-.12-.12zm-3.337-4.39c0-.07.058-.121.122-.121 1.32.013 2.437.466 3.324 1.352.446.447.784.977 1.008 1.59.223.605.338 1.3.344 2.066 0 .07-.05.122-.121.122a.126.126 0 01-.121-.122c-.007-.733-.115-1.403-.332-1.978a4.106 4.106 0 00-.957-1.499c-.421-.421-.9-.74-1.423-.95a4.642 4.642 0 00-1.735-.326.127.127 0 01-.109-.134z" fill="#fff"/></svg>
